src/assets/outline/Convert.svg

<?xml version="1.0" encoding="UTF-8"?>
<svg width="24" height="24" viewBox="0 0 24 24" xmlns="http://www.w3.org/2000/svg">
 <path d="m12.005 22.733c-5.9177 0-10.728-4.8099-10.728-10.728 0-5.9177 4.81-10.728 10.728-10.728 5.9177 0 10.728 4.81 10.728 10.728 0 5.9177-4.8199 10.728-10.728 10.728zm0-19.958c-5.0894 0-9.2308 4.1414-9.2308 9.2308s4.1414 9.2308 9.2308 9.2308 9.2308-4.1414 9.2308-9.2308-4.1414-9.2308-9.2308-9.2308z"/>
 <path d="m14.3 12.953c-0.1996 0-0.3892-0.0799-0.5289-0.2196l-8.163-8.1829c-0.2894-0.2894-0.2894-0.7684 0-1.0578 0.2894-0.28939 0.7684-0.28939 1.0578 0l6.8956 6.9056 0.01-2.7343c0-0.40914 0.3393-0.74844 0.7484-0.74844 0.4092-0.02994 0.7485 0.3393 0.7485 0.74844l-0.01 4.5405c0 0.2994-0.1797 0.5788-0.4591 0.6886-0.0998 0.0399-0.1996 0.0599-0.2993 0.0599z"/>
 <path d="m17.862 20.727c-0.1896 0-0.3792-0.0699-0.5289-0.2195l-6.8956-6.9057-0.01 2.7343c0 0.4092-0.3393 0.7485-0.74841 0.7485-0.40914 0-0.74844-0.3393-0.74844-0.7485l0.00998-4.5405c0-0.2994 0.17963-0.5788 0.45905-0.6886 0.27941-0.1197 0.59875-0.0499 0.81832 0.1597l8.163 8.183c0.2894 0.2894 0.2894 0.7684 0 1.0578-0.1298 0.1496-0.3293 0.2195-0.519 0.2195z"/>
</svg>

<svg width="24" height="24" viewBox="0 0 24 24"  xmlns="http://www.w3.org/2000/svg">
<path d="M12.005 22.7326C6.08732 22.7326 1.27734 17.9227 1.27734 12.005C1.27734 6.08732 6.08732 1.27734 12.005 1.27734C17.9227 1.27734 22.7326 6.08732 22.7326 12.005C22.7326 17.9227 17.9127 22.7326 12.005 22.7326ZM12.005 2.77423C6.9156 2.77423 2.77423 6.9156 2.77423 12.005C2.77423 17.0944 6.9156 21.2358 12.005 21.2358C17.0944 21.2358 21.2358 17.0944 21.2358 12.005C21.2358 6.9156 17.0944 2.77423 12.005 2.77423Z" />
<path d="M14.3001 12.953C14.1005 12.953 13.9109 12.8731 13.7712 12.7334L5.60816 4.55048C5.31876 4.26108 5.31876 3.78208 5.60816 3.49268C5.89756 3.20329 6.37656 3.20329 6.66596 3.49268L13.5616 10.3983L13.5716 7.66399C13.5716 7.25485 13.9109 6.91555 14.32 6.91555C14.7292 6.88561 15.0685 7.25485 15.0685 7.66399L15.0585 12.2045C15.0585 12.5039 14.8788 12.7833 14.5994 12.8931C14.4996 12.933 14.3998 12.953 14.3001 12.953Z" />
<path d="M17.8625 20.7267C17.6729 20.7267 17.4833 20.6568 17.3336 20.5072L10.438 13.6015L10.428 16.3358C10.428 16.745 10.0887 17.0843 9.67959 17.0843C9.27045 17.0843 8.93115 16.745 8.93115 16.3358L8.94113 11.7953C8.94113 11.4959 9.12076 11.2165 9.40018 11.1067C9.67959 10.987 9.99893 11.0568 10.2185 11.2664L18.3815 19.4494C18.6709 19.7388 18.6709 20.2178 18.3815 20.5072C18.2517 20.6568 18.0522 20.7267 17.8625 20.7267Z" />
</svg>
